X:1
T:Boyne Hunt [2]
M:6/8
L:1/8
R:Jig
S:O'Farrell - Pocket Companion, vol. 1 (c. 1805)
Z:AK/Fiddler's Companion
K:G
G2d dBd | dBd dBd | ege dcB | cAA A2D |
G2d dBd | dBd dBd | c3A2d | BGG G2 :|
|: f/g/ | a2g fdd | g2f ecc | e/f/ge dcB |
cAA A3 | GBd g3 | fed efg | fga ABc | BGG G2 :|]

